X:17454
T:Tiarna Wellington
S:unknown photocopy. (number 199, on p.77)
M:4/4
I:speed 300
K:G
|:G2dG eGdB | G2 dB ~AGEF | G2 DG BGBd | GedB AGEF | 
G2 dG eGdB | G2dB ~AGEF | G2B2 (3AGF G2AB | gedB AG E2 :|
|: gfed eB ~B2 | gfga bgeg | ~g2 fg eB ~B2 | gedB AG E2 | 
~g2 fg egfa | gfga bgef | g2 gf gbaf | gedB AG E2:|
